X:1
T:CALLIN MO RUIN-SA
M:9/8
L:1/8
Q:80
C:Donald Ross
S:Gaelic Air
K:HP
[| {g}ABd{gfg}f3{g}e2f | \
{gef}e{g}dB{G}A3-A2f | \
{gf}g{a}fg{ag}a3{fg}f2e |
d{e}Bd{gef}e3-e2a | \
{g}a2{GdG}a{fg}f3{g}e2f | \
{gef}edB{G}A3A2f |
{gf}g{a}fg{ag}a3{fg}f2d | \
{gef}ed{e}B{Gdc}d4|]
e2[ |
{g}A{d}B{e}A{Gdc}d3{gef}e2f | \
{gef}edB{G}A3-A2B | \
{g}A3{GAG}A{ag}a3{fg}f2e |
d{e}Bd{gef}e3-e2a | \
{g}a2{GdG}a{fg}f3{g}e2f | \
{gef}edB{G}A3A2f |
{gf}g{a}fg{ag}a3{fg}f2d | \
{gef}ed{e}B{Gdc}d4|]
